flaticon/essential/controls-5.svg

<svg xmlns="http://www.w3.org/2000/svg" width="32" height="32" viewBox="0 0 24 24">
    <path d="M5.601562 7.601562C7.007812 7.601562 8.171875 6.554688 8.367188 5.199219L20.800781 5.199219C21.019531 5.199219 21.199219 5.019531 21.199219 4.800781 21.199219 4.578125 21.019531 4.398438 20.800781 4.398438L8.367188 4.398438C8.171875 3.046875 7.007812 2 5.601562 2 4.054688 2 2.800781 3.257812 2.800781 4.800781 2.800781 6.34375 4.054688 7.601562 5.601562 7.601562zM5.601562 2.800781C6.703125 2.800781 7.601562 3.695312 7.601562 4.800781 7.601562 5.902344 6.703125 6.800781 5.601562 6.800781 4.496094 6.800781 3.601562 5.902344 3.601562 4.800781 3.601562 3.695312 4.496094 2.800781 5.601562 2.800781zM3.199219 19.601562L15.632812 19.601562C15.828125 20.953125 16.992188 22 18.398438 22 19.945312 22 21.199219 20.742188 21.199219 19.199219 21.199219 17.65625 19.945312 16.398438 18.398438 16.398438 16.992188 16.398438 15.828125 17.445312 15.632812 18.800781L3.199219 18.800781C2.980469 18.800781 2.800781 18.980469 2.800781 19.199219 2.800781 19.421875 2.980469 19.601562 3.199219 19.601562zM18.398438 17.199219C19.503906 17.199219 20.398438 18.097656 20.398438 19.199219 20.398438 20.304688 19.503906 21.199219 18.398438 21.199219 17.296875 21.199219 16.398438 20.304688 16.398438 19.199219 16.398438 18.097656 17.296875 17.199219 18.398438 17.199219zM3.199219 12.398438L9.632812 12.398438C9.828125 13.753906 10.992188 14.800781 12.398438 14.800781 13.808594 14.800781 14.972656 13.753906 15.167969 12.398438L20.800781 12.398438C21.019531 12.398438 21.199219 12.222656 21.199219 12 21.199219 11.777344 21.019531 11.601562 20.800781 11.601562L15.167969 11.601562C14.972656 10.246094 13.808594 9.199219 12.398438 9.199219 10.992188 9.199219 9.828125 10.246094 9.632812 11.601562L3.199219 11.601562C2.980469 11.601562 2.800781 11.777344 2.800781 12 2.800781 12.222656 2.980469 12.398438 3.199219 12.398438zM12.398438 10C13.503906 10 14.398438 10.898438 14.398438 12 14.398438 13.101562 13.503906 14 12.398438 14 11.296875 14 10.398438 13.101562 10.398438 12 10.398438 10.898438 11.296875 10 12.398438 10zM12.398438 10"/>
    <path d="M 23.601562 0 L 0.398438 0 C 0.179688 0 0 0.179688 0 0.398438 L 0 23.601562 C 0 23.820312 0.179688 24 0.398438 24 L 23.601562 24 C 23.820312 24 24 23.820312 24 23.601562 L 24 0.398438 C 24 0.179688 23.820312 0 23.601562 0 Z M 23.199219 23.199219 L 0.800781 23.199219 L 0.800781 0.800781 L 23.199219 0.800781 Z M 23.199219 23.199219"/>
</svg>

<svg xmlns="http://www.w3.org/2000/svg" width="32" height="32" viewBox="0 0 24 24">
    <path d="M5.602 7.602a2.802 2.802 0 0 0 2.765-2.403h12.434a.4.4 0 0 0 0-.8H8.367A2.802 2.802 0 0 0 5.602 2 2.803 2.803 0 0 0 2.8 4.8c0 1.544 1.254 2.802 2.8 2.802zm0-4.801c1.101 0 2 .894 2 2 0 1.101-.899 2-2 2a1.999 1.999 0 1 1 0-4zm0 0M3.2 19.602h12.433A2.802 2.802 0 0 0 18.398 22c1.547 0 2.801-1.258 2.801-2.8 0-1.544-1.254-2.802-2.8-2.802a2.802 2.802 0 0 0-2.766 2.403H3.199a.4.4 0 0 0 0 .8zm15.198-2.403a1.999 1.999 0 1 1 .002 4.002 1.999 1.999 0 0 1-.002-4.002zm0 0M3.2 12.398h6.433a2.802 2.802 0 0 0 2.765 2.403 2.803 2.803 0 0 0 2.77-2.403h5.633a.398.398 0 1 0 0-.796h-5.633a2.803 2.803 0 0 0-2.77-2.403 2.802 2.802 0 0 0-2.765 2.403H3.199a.398.398 0 1 0 0 .796zM12.397 10c1.106 0 2 .898 2 2 0 1.102-.894 2-2 2-1.101 0-2-.898-2-2 0-1.102.899-2 2-2zm0 0"/>
    <path d="M23.602 0H.398A.4.4 0 0 0 0 .398v23.204A.4.4 0 0 0 .398 24h23.204a.4.4 0 0 0 .398-.398V.398A.4.4 0 0 0 23.602 0zm-.403 23.2H.801V.8h22.398zm0 0"/>
</svg>
